images/global/icons/experiential/tripple-decker.svg

<svg xmlns="http://www.w3.org/2000/svg" viewBox="0 0 276 137"><path fill="none" stroke="#1B1B1B" stroke-width="3" stroke-linecap="round" stroke-miterlimit="10" d="M156.2 33.7h10.6v10.7h-10.6zm0 24.9h10.6v10.7h-10.6zm0 25.9h10.6v10.7h-10.6zm21.3-56.6h-71l-1-5.4h73z"/><path fill="none" stroke="#1B1B1B" stroke-width="3" stroke-linecap="round" stroke-miterlimit="10" d="M109.1 28.1h66.8v84.8h-66.8z"/><path fill="none" stroke="#1B1B1B" stroke-width="3" stroke-linecap="round" stroke-miterlimit="10" d="M123 70.2h24.2v15.3H123zm0-26.5h24.2V59H123z"/><path fill="#FFF" stroke="#1B1B1B" stroke-width="3" stroke-miterlimit="10" d="M109.1 107.5h66.8v5.4h-66.8z"/><path fill="#FFF" stroke="#1B1B1B" stroke-width="3" stroke-linecap="round" stroke-miterlimit="10" d="M117.4 28.3h5.6v83.9h-5.6z"/><path fill="none" stroke="#1B1B1B" stroke-width="3" stroke-linecap="round" stroke-miterlimit="10" d="M123 97.2h24.2v15.3H123z"/><path fill="none" stroke="#1B1B1B" stroke-width="3" stroke-miterlimit="10" d="M127.5 97v10m5-10v10m5-10v10"/><path fill="none" stroke="#1B1B1B" stroke-width="3" stroke-linecap="round" stroke-miterlimit="10" d="M123 80.5h24m-24-26h24"/><path fill="#FFF" stroke="#1B1B1B" stroke-width="3" stroke-linecap="round" stroke-miterlimit="10" d="M141.8 28.3h5.4v83.9h-5.4z"/><path fill="none" stroke="#1B1B1B" stroke-width="3" stroke-linecap="round" stroke-miterlimit="10" d="M127.5 44v10m5-10v10"/><path fill="#FFF" stroke="#1B1B1B" stroke-width="3" stroke-linecap="round" stroke-miterlimit="10" d="M117.4 28.3h29.9v3.9h-29.9z"/><path fill="none" stroke="#1B1B1B" stroke-width="3" stroke-linecap="round" stroke-miterlimit="10" d="M137.5 44v10"/><path fill="none" stroke="#1B1B1B" stroke-width="3" stroke-miterlimit="10" d="M127.5 70v10m5-10v10m5-10v10"/></svg>

<svg xmlns="http://www.w3.org/2000/svg" viewBox="0 0 276 137"><path fill="none" stroke="#1B1B1B" stroke-width="3" stroke-linecap="round" stroke-miterlimit="10" d="M156.2 33.7h10.6v10.7h-10.6zM156.2 58.6h10.6v10.7h-10.6zM156.2 84.5h10.6v10.7h-10.6zM177.5 27.9h-71l-1-5.4h73z"/><path fill="none" stroke="#1B1B1B" stroke-width="3" stroke-linecap="round" stroke-miterlimit="10" d="M109.1 28.1h66.8v84.8h-66.8z"/><path fill="none" stroke="#1B1B1B" stroke-width="3" stroke-linecap="round" stroke-miterlimit="10" d="M123 70.2h24.2v15.3H123zM123 43.7h24.2V59H123z"/><path fill="#FFF" stroke="#1B1B1B" stroke-width="3" stroke-miterlimit="10" d="M109.1 107.5h66.8v5.4h-66.8z"/><path fill="#FFF" stroke="#1B1B1B" stroke-width="3" stroke-linecap="round" stroke-miterlimit="10" d="M117.4 28.3h5.6v83.9h-5.6z"/><path fill="none" stroke="#1B1B1B" stroke-width="3" stroke-linecap="round" stroke-miterlimit="10" d="M123 97.2h24.2v15.3H123z"/><path fill="none" stroke="#1B1B1B" stroke-width="3" stroke-miterlimit="10" d="M127.5 97v10M132.5 97v10M137.5 97v10"/><path fill="none" stroke="#1B1B1B" stroke-width="3" stroke-linecap="round" stroke-miterlimit="10" d="M123 80.5h24M123 54.5h24"/><path fill="#FFF" stroke="#1B1B1B" stroke-width="3" stroke-linecap="round" stroke-miterlimit="10" d="M141.8 28.3h5.4v83.9h-5.4z"/><path fill="none" stroke="#1B1B1B" stroke-width="3" stroke-linecap="round" stroke-miterlimit="10" d="M127.5 44v10M132.5 44v10"/><path fill="#FFF" stroke="#1B1B1B" stroke-width="3" stroke-linecap="round" stroke-miterlimit="10" d="M117.4 28.3h29.9v3.9h-29.9z"/><path fill="none" stroke="#1B1B1B" stroke-width="3" stroke-linecap="round" stroke-miterlimit="10" d="M137.5 44v10"/><path fill="none" stroke="#1B1B1B" stroke-width="3" stroke-miterlimit="10" d="M127.5 70v10M132.5 70v10M137.5 70v10"/></svg>
